X:1
T:Reel de Beris
C:Gilles Vigneault
Z:robin.beech@mcgill.ca
R:reel
M:2/4
L:1/8
K:A
E2 | AG AB | AE CE | FE F=G | F2 DE | FE FG |
AF GA | BABc | B2E2 | cB cd | cA Bc | dc de |
dc BA | AG AB | cA GF | EC DB, | A,2E2 |:
A,E EE | A,E EE | DF FF | DF ED | CE FG | AB AG |
AB c^d | e2E2 | A,E EE | A,E EE | DF FF | DF ED |
CE FG | Ac de | fd BG | A2 E2 :|
